mimetypes/scalable/text-x-iptables.svg

<?xml version="1.0" standalone="no"?><!-- Generator: Gravit.io --><svg xmlns="http://www.w3.org/2000/svg" xmlns:xlink="http://www.w3.org/1999/xlink" style="isolation:isolate" viewBox="0 0 256 256" width="256" height="256"><switch><g><g id="application-mimetype"><g opacity="0.2"><path d=" M 78.924321 15.500025 C 43.627596 15.500025 39.829708 19.125398 40.002695 54.49353 L 40.002695 127.500014 L 40.002695 200.506441 C 39.829708 235.874573 43.627596 239.500004 78.924321 239.500004 L 177.081083 239.500004 C 212.377805 239.500004 216.002702 235.875035 216.002702 200.506441 L 216.002702 127.500014 L 216.002702 54.49353 C 216.002702 19.124994 212.377805 15.500025 177.081083 15.500025 L 78.924321 15.500025 Z " id="path1163" fill="none" vector-effect="non-scaling-stroke" stroke-width="4" stroke="rgb(0,0,0)" stroke-linejoin="miter" stroke-linecap="butt" stroke-miterlimit="4"/></g><defs><filter id="dT9be4oizpWHgSAClOFYXBNHjjyG4R2J" x="-200%" y="-200%" width="400%" height="400%" filterUnits="objectBoundingBox" color-interpolation-filters="sRGB"><feGaussianBlur xmlns="http://www.w3.org/2000/svg" stdDeviation="2.120027"/></filter></defs><g opacity="0.1" filter="url(#dT9be4oizpWHgSAClOFYXBNHjjyG4R2J)"><path d=" M 78.924315 16.5 C 43.627592 16.5 39.82971 20.125416 40.002699 55.493531 L 40.002699 128.5 L 40.002699 201.50647 C 39.82971 236.874573 43.627592 240.500001 78.924315 240.500001 L 177.081083 240.500001 C 212.377806 240.500001 215.084425 236.863068 216.002699 201.50647 L 216.002699 128.5 L 216.002699 55.493531 C 216.002699 20.124997 212.377806 16.5 177.081083 16.5 L 78.924315 16.5 Z " id="shadow" fill="rgb(0,0,0)"/></g><defs><filter id="1GGKDLSX4D5CRtD9iEpnoGJ3Y3ohEHpC" x="-200%" y="-200%" width="400%" height="400%" filterUnits="objectBoundingBox" color-interpolation-filters="sRGB"><feGaussianBlur xmlns="http://www.w3.org/2000/svg" stdDeviation="8.4801079"/></filter></defs><g opacity="0.3" filter="url(#1GGKDLSX4D5CRtD9iEpnoGJ3Y3ohEHpC)"><linearGradient id="_lgradient_350" x1="-0.0681490711308741" y1="0.03125" x2="0.9537210324437329" y2="1.0531201035746074" gradientTransform="matrix(176.005396,0,0,224,39.997303,16.5)" gradientUnits="userSpaceOnUse"><stop offset="0%" stop-opacity="0.58823532" style="stop-color:rgb(0,0,0)"/><stop offset="88%" stop-opacity="0" style="stop-color:rgb(0,0,0)"/><stop offset="100%" stop-opacity="1" style="stop-color:rgb(0,0,0)"/></linearGradient><path d=" M 78.924315 16.5 C 43.627592 16.5 39.82971 20.125416 40.002699 55.493531 L 40.002699 128.5 L 40.002699 201.50647 C 39.82971 236.874573 43.627592 240.500001 78.924315 240.500001 L 177.081083 240.500001 C 212.377806 240.500001 216.002699 236.875001 216.002699 201.50647 L 216.002699 128.5 L 216.002699 55.493531 C 216.002699 20.124997 212.377806 16.5 177.081083 16.5 L 78.924315 16.5 Z " id="blur" fill="url(#_lgradient_350)"/></g><path d=" M 78.924321 15.500025 C 43.627596 15.500025 39.829708 19.125398 40.002695 54.49353 L 40.002695 127.500014 L 40.002695 200.506441 C 39.829708 235.874573 43.627596 239.500004 78.924321 239.500004 L 177.081083 239.500004 C 212.377805 239.500004 216.002702 235.875035 216.002702 200.506441 L 216.002702 127.500014 L 216.002702 54.49353 C 216.002702 19.124994 212.377805 15.500025 177.081083 15.500025 L 78.924321 15.500025 Z " id="shape" fill="rgb(59,59,59)"/><path d=" M 112.411039 73 C 110.144328 76.256671 108.305828 87.425203 114.866309 92.944644 C 122.613175 99.556196 124.263117 107.503415 124.263117 119.532272 C 124.263117 136.455949 110.914305 150.005113 120.2954 166.068471 C 94.061331 142.933925 120.495745 108.21446 100.535389 94.150677 C 108.431536 115.301346 80.775377 127.994111 80.853947 148.520158 C 80.791097 170.29939 96.606957 182.988221 115.561641 182.945002 C 102.043909 177.060208 95.8802 159.295845 96.595171 149.152632 C 106.101975 172.220387 120.283614 182.996074 144.011342 182.996074 C 134.87381 170.22082 133.381002 168.602296 132.854597 160.474371 C 132.901727 152.975009 135.726276 151.301488 140.664314 141.916466 C 153.089935 121.044712 147.409427 99.976539 130.493603 90.143675 C 127.052299 88.309094 126.129116 87.794475 119.863271 85.170278 C 116.25304 83.36713 112.658529 79.450485 112.407105 73.00786 M 154.787029 108.351955 C 167.318719 125.523121 153.046731 139.465123 146.498037 149.981541 C 141.127869 158.243034 146.297677 171.913973 151.915335 183 C 152.41033 173.630698 158.244038 167.168427 162.966011 163.833193 C 177.42658 152.181452 177.886194 136.947003 170.217897 123.393912 C 165.401649 115.957393 161.143231 113.545335 154.787029 108.355881" id="iptables" fill="rgb(234,179,5)"/><g opacity="0.6"><path d=" M 78.924573 15.500025 C 43.627848 15.500025 39.829708 19.126032 40.002695 54.494165 L 40.002695 56.494138 C 39.829708 21.126005 43.627848 17.499998 78.924573 17.499998 L 177.080824 17.499998 C 212.377545 17.499998 216.002702 21.125601 216.002702 56.494138 L 216.002702 54.494165 C 216.002702 19.125571 212.377545 15.500025 177.080824 15.500025 L 78.924573 15.500025 Z " id="highlight" fill="rgb(255,255,255)"/></g><g opacity="0.1"><path d=" M 128.002691 15.500025 L 128.002691 239.500004 L 177.080824 239.500004 C 212.377531 239.500004 215.084421 235.863501 216.002702 200.506787 L 216.002702 127.500014 L 216.002702 54.493184 C 216.002702 19.124648 212.377531 15.500025 177.080824 15.500025 L 128.002691 15.500025 Z " id="right highlight" fill="rgb(255,255,255)"/></g><g opacity="0.2"><path d=" M 156.002703 239.500004 L 216.002702 179.500005 L 216.002702 201.983857 C 215.950394 235.97965 212.200019 239.500004 177.828601 239.500004 L 156.002703 239.500004 Z " id="clip" fill="rgb(255,255,255)"/></g></g></g><foreignObject requiredExtensions="http://ns.gravit.io/"><gravitDesigner:gravitElementRef xmlns:gravitDesigner="http://ns.gravit.io/" xlink:href="#n3z3Rn9zYRRADcMtvPDA1OFhj51C0B85"/></foreignObject></switch><gravitDesigner:gravitGraphicSource xmlns:gravitDesigner="http://ns.gravit.io/" id="n3z3Rn9zYRRADcMtvPDA1OFhj51C0B85" version="1"><![CDATA[eMKcw41aw7vCk8OiRsKSw75XLsOww4XDvcOiw7HCjMOeD0dsw4QKJEASEio9QR7DhwV6C8K9w5/Cgg3Dv8OvJ2jCusKBwrE9w5vCs8OrPcK7wrvDqW5Kw4rDjMOKwqzDvMK+w4osw7HCj8OZw59nP8OOw4pDw6jDjz7DjMO+e8O2w6NPw7/CuA7ChHXDkcKVTyPDpcKhwo3CpgE3LRrDn8Kbw73DmMOWwp3Dv2FWwrbDjXTDg08zw7TCsE3CgVrDsgdDw7rDm3TDk3fDk8OLwoRkMcOIB14+wrDCnFENwqrCpsKcN0fDv8OkYnvClBTCsMKBwp5uWU/Cr8OAa8OgN8OJwp8/w7w0w6N4KQPDhsOWdsKhN1VuwrZaw6whLMOKw5ZmCsKywpUbCMOnwqHDgRjCrcKIw5HCoB09ZcK6w6UywrXClHJTcEjDqEPDssKoSsOFw6HDsMKuCsOqRMKMw4DDpmjDpW/ClF3ChsKqI8OYw7TCpMKQBWJCFcONwqBzdznCu8Owwo53byJ7wrXDqlQBw5hOwoRBXiU5c8KNcGnDg8KAwpDDiMOjw4fDjsK9eXPCncKCFWzCkldvwq7CgcORw6hVwpLCvMKpYgchw51tw5JRw5jCrMKhwqjDmC03AlUlw7lkbxfCrQzDlsOwbsOeXAPDsyp5VUVKBMKIwp9UVWV3ZhYjFMKTwr3DkErCoxxUw7N0w5vDqQrDo8OtGsOZLMKVw5vCrMOIEA/DnyQvwqoWwr55BMOlwpPCgyoNwospw65xG39DOVbCqCAjw5wSwrYWw6tHfcOTGWx/wpvDlVUyw6vDrw5eB8KiwqcYBxTCiyXDi3HCt8ORAwLCiwnCmcOuw5RYwqvCnRhxC8OPdUXDtC7ClzwtwrPCrMKTwrrDki3CkGA0w7LClsOgwpQIMlrDjh3DjyfChCzCmw7Dl2/DnlwlK8O+wr7DjMOXw4BET8OJV8OtOcK8DQjCrWpdw6rCuFPCpH3DgVl6wqwhHcOswpp7wrcnb8OeXAPDsyrDucOzw48fZsK1PyVUO8O7McOvw5LDtMO6w67CkMK7UVFfwpJ8wrrDmsOWw4HDtA/DusKRJGkcITHCgsKAcMKMRjHDvAM0fcO/w5bDsEfCgsKgYQLCpiDCkiLDocOpw7vDgw8UQXzChGkMJQgEIVDCmCYnwrXDuSHDs28AwoNhAsKdw6bDtcK/TVvClMKzH8Khwo/DiMO0f3o4w7nClxnCvMOCMMOOw5vDjcOLw5AjPMKDOE3ClcK3axcdw6XDpMOHbMOxw51PwpfDiUE/X0bDuklLcEgbw7/Clw8vQk5Re37DvSzDpgzCsx/DkcKPw7TDtcKLwoRewr5Iw6JyIXUvIl3Dm15vw4vDksOZwo/DmMKvw43DvDI5w7Q/w5PCiMOLw7FMZ2t5SMKcw6kqw6IOBsOkw4NCw5XDhETCrsO6Sh/Dr2fCv0zCsn4Qw7ATwpfDjFRRwpd8wpvCri3CrQ7Dh8OVAj94QMKkw4Z5aMO3w4wJdmVow7Y6w6HCr8KTUMOrw5JgYMKYwpTDo1/Ds2BAw6IcEcOlBSHDkcK5QB1YL8KKwoFiwofDmsKeOMOVw7rDkHjCt8KUw4LDl8KfOhDDniQvKcOFMGwIasKWWsOewrPDk8OMRsO/w5weMA7Dn23ClDDDl1zCslHDjHokXMO+wrAywrDCocK9wqUUw4rCkQHDiBDCpkgeVV10w5/Cs8OzwoBjUGsIwqbCuSDCvErCjsKLMsOYwqAQw4fDlsOWWTYOwo0Uw5zDpcKqcMKOw57DoS7DiznDj8KZUlpucMOGXDlew6oUQ8OWw603wovDucOCTVLCkcK5eXPCnUIvw7YMB24AwrkGZsOBMAl4VVXCkmpzw4J6w5bDisKsecK0c8KKYMKrHivChD3Dl8KaA1PCucOxSsKpL8KBwrlJXsKpUcOVw6dfwqhycMKOw5xEUw7Cl8KuawJ9wrUWw4cRJ8KtcsK3w7JxayFowrdZw40RNnnCk8K8OVgAw6LDicOBwrrCogfDgV0XBcKQY3HDp8Otw4YUw4cdwoPDqx3CtsONHMKyfyUhcsKuw6cAw43CujcHwq/CqsKGwqcYE0bDgsO0OBbDpsOHwpPDrggYwr7DoFXDi8OAA3xgDjsmw63Cq8K7HMO5wrTDjCdqw5PCnEPCj8KQw5kTacOXYg/ClTZ/ZMKwHMKPw63CjcK2wo3CqcKbN1fDiU/DtMKnwrdlfgnDjFPDsnHCssOfeMK6w6nDk0l4QsOWBw5aFHXDpmTCvMKSEsK0wpLCrsKWN29eAsOzwpp8w68kIcOoI37DgybChFxYByfCriTDtBvDgz/DgMO4woRmEsKFYAghYATCoWDDtMODDwjDtBHCuyLCnEAxGMKfwrgKwrvDs1ATHcK8YnhkIcO4wo9jwqF/w4Y8w7DDh8OXw7lDOA3DoTjCjMK8wpt5wp4Iw67DhkJqG8KAJXdIwqJ8wq0ewo7DucOWD8KWw7jDgVnDtcKmwq8Lw6ghR19Zw6jDlcKvw6lfw59twp99csOSwq7DpsKuw6PClwzCnUx/wqRRwpJAUcO6QsOqBAnCv8OawpIyflXCrcOSw506wpIlwrhreCFrEsOFw53DhMKKGynDocKqEGbCv8O8wqssw5bCkix2w5pDewonwqMEIHvCmcKpNsKjE2M0JMKQwrkgwq7CvsKBw4U2w7QAw4nDjiDCnkTDhjzDr8K8wqHCtF1VJ8K9wqY/wpwaYsOpwrwWH8OvYcKxwoZNLFNQeMONIA3ChzZ5w5c6w7ZIw6fDoyxsHTDDhMKrfsKPw4Ucw7vCkMOZwqTCmQsLdsKrCMOhwqLChcOWw5UZw4MKBjZMFMKNX8KLwpbDt8Kww5hJNWxIw7XDrMO9wqDDucKwKcKOw6sVw6YQK8ONw5EEw5TDtnpOw7oGFsOrw6nDvRY1acKGw59aIsOGDTTChi93GgPDs8Kcw60IwqvCoA7Cv8KBw4XCkkMmwqbDqsK2GcK5wpPCuFfDkRhnwrbDsTbDpsK7HcOmwqbDghzCjW/Cs3ohwq3DhcOwNRZTYELDnmQEE8OGwpgsw4TDkGZuHcKWaj44ZsOqen7DpMKEwr/Dh2LCmB8PDcKVwoVKbcOQOsKvwppyw6LCsAbDplTDo8ORw7PDkSPDtC0sw6bCqkfClm7CnBo0wrsCSsOVaMKRCD3CkRUhKFvDncOrFsOuX8KUw4Uuwqh9w6Qww7TDnRzDtsKfwqbCpg9fwqXDisONd8O/w7g8az5fw4xhGA5jCMKOT8K5SFEQRX3DuDwLw4bDqcOKD8OQR8KIwqDDoAnDviQMwqMQRWLDsMOlw5LDqcOzw4VPCMKFEXx6e8K5w7HCp0lVeRnCncOewrvDk8Ofw4/Dtyl9wp5NY8OFVWJSwo7CoDjCikwTwrvDncO+w7Fqw6t3JcOebsKEwr9yw5fChRY/w4/DqsOLdMOxacKVw4gLWWIoSSEwSsO9w7JWJTYFwqDCtCLDnWFoLgpOBMOYw53DkcOfwq1Fwq8TagHCmF7DvsKvw7AzTH8kcQhHw7EpRjTCgcOgGMOxasONBg3Cu2s8w6ZowrvCgMKAF8KEw5rCnsKEw7PDmhN2w7wGw7LDt8K1w7FewobDvnXCsyt1woFRE8KYwrfCnMOQVcKsMcONZTHCqnDCkMOzDiXCih7Dg8Kkw5nDu8KbXXrDg8OvwoA9LDlqwrcdUUzDtHAawpRhcFDCl8OYFsOrw53DlxrDqD3DjcOuVHbCp8KrecOow4rCnsOVacK6KAhIBErDjMOiHRDCscK5wobDl8K/w5fDrELDpwnDhsKYwrvDpsKkcMK0wpHDksOrw5U6J8OEdcOlQFInw65JccO2w75mNzVYRMOGw4bCtUjCmRvDiAjCuWjDrRU7X8OKMlM9b8ONw4bCn8K9wr/DmS0HwqjDt8OYw5RHw4Baw51vwqLCoTDCmzHCm8OjKzpcDlbCqcOWwrPDtzfCuyfCpl8dwrLCqQV3wrvDuEwOwqXDlsKuwrFoLScnwrnClTtRN2fDr292YUtWQ8OVBsOoNsKTwoUMw7HDm1xgw6bDu2AkwprDvnjDrsOTw6DDt8KaXcO3w5gne8K7Xw1wTsKjwqkrw6jDjcKSVMKMDCUawrPDmgTDpX7DtsO+ZsKXwq5PdizCrMK2MsKhw6V1wojCiTnDo1vCuzbDhcK5wq16XmLDomHDthdsdsKnIsKzwrwsw77Cv11Xw6LDtMKHw6vDj8K9w7Msc8KEw4zCg2bDmMOUw7YBG8ONLUcUw4jCrmISalnDm0d1w548dcKeGcKyTMOiZVPCu1DCv2RwacKPw7cLDMOCSC/DindiCxrDvcKtYHXCi8KsLMK6w5zCuzHCg8Ofw7t5w6F5N07Dv3AlwoxLw6BmEzXDvsO9SsKJwpfCkSsbTsK0ccOhw6LCnybCrsOUw5EQAMKGwqk4w65vw5dLw59dfwvDswRdZ1ptHVApw4NtfgzCtXxXOsKtQG7DvT3CtThfb1pff8O3w6UnB8K4XVQnFw1TPlzClcKmw4ARPcOoWcKpw6lKw4rDqBTDlmHCn8Otw44rQx3Ck8OYwqrCsMOVwqpKDnrCjnvDusO1wqbClwlqw5vDtQ4YQjgaNw0vwrZWQMKHw4HCrjHDkMK7LcKQwrEYMMKiwojCgcO4R1vCrMKPw7vCmsOmwpnCvMKxwrI4w4huw6R8LcKuOMKrwoBkw4JWT8Kkw7tgw6vCqsOBwrZZMnnCsnUdPsKcw5wlw4fCv8OaGsKhfgDCtsODSsOJwpMtwps4MsKkwrBJw6TDhcKea8Oiw47DrU1UwpbDiX4BN8O0w6YEwqXDhsKDwq0LwrfCg8KdXMOwwq8aXmxtw6nDrwnCoFPDsAp6wrNlwoYkDyxKwoPCoMKnGMKCOcKJcwMSwrp8Vm88FcOVwrc0woNVHhvCkcOewrwiTcOrw4HDlsOWw5EHYBwQEnrDsgvDkjZ7w6BBw4nCp3sMwpFPWQAsNsOlwrknwr/CmsKaPsKPBsObSXYdw4vChA4owoTDmsOpwqXClMOFwrbChXYmw58+w5jDgsK9RQDCgsO6w7sFw7TDpMOXwpLCvijCpjTDucOuFyUGGXDDmBN4Xi/CtzvDggTDpxPDiXwQFT7Cs8OdOULDr8KJOnViwrhXF8OBYwzCp8OIMCDDkGnDsGxrw5TDmA1ww47CkGLCvMOZwpLDgMKRAToiw7LDhsKTwq0CDcKjTkPDmjTDqMKiwrNoeMOZwrrDosOXMEs0wrQ8w6xzSXvCsMOlw5nDm8OvwoHCvsOzw4VnW1bCpsOrQGvDllvDoyE3GnDDqUbDlMOnGDrDqcOGw6PDg8OOTlfCogsvOGXDkCcoacKEZxknwrMCQ8O0YMKrSHbDgwXCim8aXmzDkQrCtALCvU7Di8OJwpvCrcK8wqM4wpDChcOqw6bDmS8aBgQPWWIbw5dHQcOZKifCjMKgLRVvOyDCr8K2cSY+w5jCgnfDoRJEw7PCvWw8w5nDgj81HCjCo07CuMO7ZW4lCcKEYcKzesOOw7nCqsOeDyfCu0/DlcK0IsKNw4rDhcKgwobCrcOGwp4PwqVMw5sqwoB7w4TCssOoDWvCkBLDk8OUwp5sKcO7w4IGw4XCrsKew5/DsSXDrcODBcOIw7PDssKUPMOlw7zCksKsV0fDkcKkKsKiDcKxJsKwwrN9JMKOw4zCgRlTciV3w4PDqcOBVsOscjoow4kefcOGw7LClDLDnwPCgMK1I8O0wpbDswFSw7fDgMORw7nDocKZwqNUP1tnHS/Di8ODKsKnwpUDZMK2eRrDr8O8OMOyB8KecsK8R8OeYGPClALCrhHCjsOPwrbDtsORw5TDgBwGwrc3w55sw5lsHwI1w6HCviDDmcONHMKyTcKGZsOdBsKYw4t8wrQGw4pzwqwdwrXCtVAuw5ktdMOhMQ9JMgQeF8K3L0rCr3XDrHXCq8O8fMObKz8/bMKWwp/Cr8K7w6XDp8OLdsO5w7nCul/DkgjChU01OMKEw6EIQVAYecObL381wox8RGgSwoZowoIiEGLCqsKPw4lpw4PCpC/ClcOyw5RaTF0PREAowoFeNF/CtkjDnsK7w64pwqdYQsK8woloBUfDhcO9YVVLVMKdW8OzVsKPYsK6JGTDhMK/TsO/ZW/Cu8Oew49jXSEvwqrCvjYXwpjDrkNHdcK5G8KzfsOVE0tlWhJnwqrDoX/CmcO2wrLCr21ZOQfCnAsgw4hnZgxXJy3DtxBZwofDtsKuwrHDtcOBw4rDlE06acKXIBzDuzjCl8KNwoclEgfCtwDDncKSWMOcw5PDvHtZw5JAwoLDh8O8c8KaO8KCwqkow5E8YcOTQhzDq8KjwrtcHsOLw7lWIXHDpMKAwq7Cj8KWw7LCsETDn8OnwpgNQsKiXT7Cp8K5aA4yaMKCwo14wocvwrcMw7cgw5zDj8K/wqAKTMKxQiFcFUAXWcOIRUfCtVjCnxzCm2LDt8KSP8OHCsOrEcK+fUlNwrM9wqFbw64LwrpNw7bCoEnCkcOtw51WwoLCh0fDkMOhwpTDtGwrZQLCqcOvB8OHw7Z0woPChRRhwqjCicKTwrTCtMOXw60UKcKGCsOCB1tdwpPDuCAhY8Opw5kvcsOJwp1ATQTDgh3CvlhQVMKgwqXClcO5M8K1wp/DscOlVAvClmLCsk93w4o+RBUgQcK2FcOSVUgLwrt5w6Q9w5s6woFqcMKXw4/CtMOkwqlTPzDCrcOXwqc7fMKvSTDDkS3DtQwpw6DDpsOmOMOPFS42OMOkwojCpcKhw6kmZl9FwpHCmW46bnjDnB5dB8KKQBbCq8OfJ381SC3Cpj5EQ1jCsMOKaMKJw5nCiMKBG27DhzMgFX7CnsKIwpF7w7gVwqRsw4rChElZw55Tw7XDlMOsw7nDpEZew5gVasK5ESpJVsKCVcOLC8KkfsO+w71qw7oPdsOlwrXCnMKOw4vDtsOgwqR+w7NHVMOUCMKKfcKAw4nCqcKmwr7Cl8OUwqFtRFoqwpRgw6E1wqoIwq3DmzbCqsODwqHCtsK6woTCgsK6CgrCn0pqasK7S8Onw5xmFwjDucOCK3xXw5oPY1YewpY4fcOyKsOYwrfDn8O3MMOnw5rClsO6Jh/Dn1smaxXDgmPCusOTw6DDjcKpwpArKC8rw7RgR8KKwqLDg8K+wqjDsW7DtHvDrcKswrVYZsKawrzDqMKHwrXDk8OtYMKuWAAxXwTCpXXChkfDhwrDuMOFN8K0wrPCuVPCtcOgVAR2w4jDtgEWw7M7eX7DnMOIQ8OTwrJhcVQZw70bw5rDmXFgGR00DcOOw7AKw5dnwoBWNjUnRn3DjsOhRwvCsl7CjwzDnsOTw47DhsKlw5F5wrpTwpjCqwVRw7obfMOrS3QVw6EcwptiAGbDscO5V8Obw5nDrinDhg0Dw5R1P03CvcKYMjvCpcKNVsOJFltYR8OmKnvDpF0uw7jDsxrDhz5uw57CusKtW8OWwrfCh8Oww7HCiMOvwo94WMKKw6DDuMKHw5vDqz/DnVF+NcO9GVHDu8OywowJX8KOwpnDhMOtwo/Cp3JOaWfCriBLVcOCT8OLSMKew5fDmT7CkMKjW8OCDMO0b8KeMRHCj8KHD2lPw41PdmvDmyZrSsOEwprDjwxNworDpsKiw6UZXcKow6dQw7h4w4bDpMKAL8OOwpjCpirDjMOjw55Uw63CjyZuwp0NwrnDmi/CjcOeE8KnwrLCj8KJB8OdTMOqwqLCk1bCpMKlPsKCS8OrwpdvwqrCrg7DmmvDpcOBQcOXw5wbw6fDhXLDi8KswrFRwpRkOEd6wrIzN8ORBsKYXAwnw5RtVlcHXyUvwqrDjsOOBMKuw7JJVWsObmIMAcKsw5DCrsKCwo/CqlEmw4fDhSHCoBzCusOswofDlcOxw7jDusKMwoHCmcOAVT7CqMK6IsKieXLDkMKVEH3DoMKaaMOnw4rCgcK6wqfDtidlwq1mZMKjFBVNw7TDgSA+woIrw5bDrw7CvsKcw7k8woXCncKTwrAmMzbDpcOBNXLDlW7ChsOzTioYZVUJw6t1LcOzLcOydMOmM8Ocw4N+dcOww7nDjAfCrSQvOzbDuG7Co8KTaW/DhQHCr8ODC0MXMcKcw6LDjl7DsMK6woJXB8O/Kmc+URxGw6nDtGofQUvDvMOhwqDDvSdPGMKhw5tnG2jDpMOlIQNMw79bTxgjHVvCs8OicnDCqU0tHMKXUcKyG1vCk8KTVgrCiUrDjHHDmsKUHsK5wqFtWmUDw4TDqgDDmXHChcORK8KrZMOjwrPCtVvDp3vDtCTDmMKpw7g+bsOAG37DtUU6JGtcwoV0wpRaNMOhHBdQR8ONW1k1YSwlecONwosKw7vCmkZXwrnDp03CqMOtwrzCo1bCkcKCX8Otw5LDoMOIw4pkdsKyUWUjw69KKMK0wqY+w7TCnn7Dj3LDjsKyVsKhw4E3T8K2SjR8XsKEDmYsw4LDlS4xKWfCnUTCr8KfREDChsOfw5zCvMKgw4fDjcOrSHEuwpTCpsKSKMKra1MgV8KKag5ZXmldw5bCs8KYwrfCq27CmcKsdGMMw4LDoMKrZ8KxFkDDvcKuVMKKcsOvWUTDj8Kqw4Uuw5QlFlrCnFXDgC7CjsKqcMKXOyJPdEjDocKNw5vCocKrIhYiwq3CsyrCosKoFcKTTcKUNDrDmxgRD8KPwrgswr/Cjkt3V8KTw7vClF4Gw5XCicKtwoXDjgVVeMKUO8OmwozDshwCwpnCnnDDs8OmGsKYwr8KLsOrCybDv8OrN8ORw7lHPMO5w78zw5FpBDXCrsOVwqzCusKSVsO4GsOjw44TQhgWZcKVwoxhD3LCsMOowp7DkFnDjx0BW8ODQXVIZSABCsKvwpRAwobDlkthfcOswrktG3xDw6HDusO8HMKmKsOmIsKbwp7DiMK1w6XDlUlTwozDuhJAZ8Kbw53CjlhuOlTCtHsoXMKfwqAxVMOHI8Opw4nCm1HDicKDw4AwfXodw5Jwwq7DksOdwpRfwr1rCU/ChWt9wofDhnVvfS5cwo97wq0QwqrDvVjCrMKZOhnDmsOxwqxrwpIJRC1Kw5nCjVkjw7UtL0fDucKLw4LDtTfCsF9IKn7ChkHCjEZiERdrTS1kb8OlwrtjW8KMIMKKGsO+G8Kww6/DuyzCqcODVsK7wqDCgnNKCmtAw4pMS8OpCTV3w5wyw5vDo8OfwoDDvThiDxs7UMOQNS3Do8Onw4XChmvCpnxxw7llTcKJZz4rw5PCv1TDocOqFG1bZMK/DcK5P8K+worDvcO/woXDnGLDiCXCrcKgwrHDlsKLwpFAYwknK8K1woLDtBbDslTCscKcNwTDsgQ5w5wKwpd+IELDgmY8dsOQwrLDoMK7w7nDqTAvw4A5w7bCnMOKw59tw58HwrnChWUkXyQpwrnDghfCkcOUw6VoC8O6FMOOHMOawq/Dt8KOwpbDi8Kjw6rDjmMYGcOvaRTDk1bDvCBnwphrL2DDkk5Ow4fCglnCtjESc8OJwphSS2TCt13CoMK+c8KXwqtkw6UhwpMFSF7CnsKMWEvDsXorS8O+wrHCj8K7wpzCrEvCtMKLw4czIsKiwq8fw5FBPcO7CHpnw7vClsOJdsKOwpFfTMOdwo08aS3Co8OJYXvCtMOhw4xgQGBrRsKswrjChsKPZsKbVcOTwrzClcOBeHDDh8OXwp/CvMKFwrhpXMO+wqlJTMOewpIYe8O5woAGwozDv1s5wpxVGVTCoMKiaXXCoAfDuyDCtlwmw6RIdirDrcOOwqnCvMOaw7hPOSzCksO+w7HDkMK7wrEawrkqwobDi8KwwoTDkcOiaWlXwppfwrfDjGpfX8Obw4jDv2zDuA9lwpnDhsOuwqHCjcKLw7zChyzDjsO8w7bDtMOycMO1dcKKETQudQNewrEic8OgBWbDhRXCm23DgcO5YRPDtcO8wqHDmkfDlyl+dznCu1kXWVbClcKMTUrDtcKJdzUcQR0aw5tCw53DmMOzw5zCuMK7woR7CjbCghPClxx8w7lbXD7CnXHDiTDDh01+Y8OhwqbDsWtKwrzDjVU5woTDvn/DgcKzX8O+Dw0rE8Ki]]></gravitDesigner:gravitGraphicSource></svg>

<svg xmlns="http://www.w3.org/2000/svg" xmlns:xlink="http://www.w3.org/1999/xlink" style="isolation:isolate" width="256" height="256"><switch><g><path d="M78.924 15.5c-35.296 0-39.094 3.625-38.921 38.994v146.012c-.173 35.369 3.625 38.994 38.921 38.994h98.157c35.297 0 38.922-3.625 38.922-38.994V54.494c0-35.369-3.625-38.994-38.922-38.994H78.924z" fill="none" vector-effect="non-scaling-stroke" stroke-width="4" stroke="#000" opacity=".2"/><defs><filter id="a" x="-200%" y="-200%" width="400%" height="400%" filterUnits="objectBoundingBox" color-interpolation-filters="sRGB"><feGaussianBlur xmlns="http://www.w3.org/2000/svg" stdDeviation="2.12"/></filter></defs><path d="M78.924 16.5c-35.296 0-39.094 3.625-38.921 38.994v146.012c-.173 35.369 3.625 38.994 38.921 38.994h98.157c35.297 0 38.003-3.637 38.922-38.994V55.494c0-35.369-3.625-38.994-38.922-38.994H78.924z" opacity=".1" filter="url(#a)"/><defs><filter id="b" x="-200%" y="-200%" width="400%" height="400%" filterUnits="objectBoundingBox" color-interpolation-filters="sRGB"><feGaussianBlur xmlns="http://www.w3.org/2000/svg" stdDeviation="8.48"/></filter></defs><g opacity=".3" filter="url(#b)"><linearGradient id="c" x1="-.068" y1=".031" x2=".954" y2="1.053" gradientTransform="matrix(176.0054 0 0 224 39.997 16.5)" gradientUnits="userSpaceOnUse"><stop offset="0%" stop-opacity=".588"/><stop offset="88%" stop-opacity="0"/><stop offset="100%"/></linearGradient><path d="M78.924 16.5c-35.296 0-39.094 3.625-38.921 38.994v146.012c-.173 35.369 3.625 38.994 38.921 38.994h98.157c35.297 0 38.922-3.625 38.922-38.994V55.494c0-35.369-3.625-38.994-38.922-38.994H78.924z" fill="url(#c)"/></g><path d="M78.924 15.5c-35.296 0-39.094 3.625-38.921 38.994v146.012c-.173 35.369 3.625 38.994 38.921 38.994h98.157c35.297 0 38.922-3.625 38.922-38.994V54.494c0-35.369-3.625-38.994-38.922-38.994H78.924z" fill="#3B3B3B"/><path d="M112.411 73c-2.267 3.257-4.105 14.425 2.455 19.945 7.747 6.611 9.397 14.558 9.397 26.587 0 16.924-13.349 30.473-3.968 46.536-26.234-23.134.2-57.854-19.76-71.917 7.897 21.15-19.76 33.843-19.681 54.37-.063 21.778 15.753 34.467 34.708 34.424-13.518-5.885-19.682-23.65-18.967-33.792 9.507 23.067 23.689 33.843 47.416 33.843-9.137-12.775-10.63-14.394-11.156-22.522.047-7.499 2.871-9.173 7.81-18.558 12.425-20.871 6.744-41.94-10.171-51.772-3.442-1.835-4.365-2.35-10.63-4.974-3.611-1.803-7.205-5.72-7.457-12.162m42.38 35.344c12.532 17.171-1.74 31.113-8.289 41.63-5.37 8.261-.2 21.932 5.417 33.018.495-9.37 6.329-15.832 11.051-19.167 14.46-11.652 14.92-26.886 7.252-40.44-4.816-7.436-9.075-9.848-15.431-15.037" fill="#EAB305"/><path d="M78.925 15.5c-35.297 0-39.095 3.626-38.922 38.994v2C39.83 21.126 43.628 17.5 78.925 17.5h98.156c35.297 0 38.922 3.626 38.922 38.994v-2c0-35.368-3.625-38.994-38.922-38.994H78.925z" fill="#FFF" opacity=".6"/><path d="M128.003 15.5v224h49.078c35.297 0 38.003-3.636 38.922-38.993V54.493c0-35.368-3.625-38.993-38.922-38.993h-49.078z" fill="#FFF" opacity=".1"/><path d="M156.003 239.5l60-60v22.484c-.053 33.996-3.803 37.516-38.174 37.516h-21.826z" fill="#FFF" opacity=".2"/></g><foreignObject requiredExtensions="http://ns.gravit.io/"> </foreignObject></switch> </svg>
